!!!COM: Mukhatov, Veli
!!!CDT: b.1916
!!!OTL: National Anthem, Turkmenistan
!!!ENC: Davis, Matthew J.
!!Vocal Line Only
**kern
*clefG2
*k[b-]
*X:
*M4/4
=1-
1r
=2
1r
==!|:3
4cc
8.a
16b-
4cc
8.a
16b-
=4
8cc
16dd
16ee-
16dd
16cc
8b-
2cc
=5
8cc
16a
16b-
4cc
8cc
16a
16b-
4cc
=6
8cc
16dd
16ee-
16dd
16cc
8b-
2cc
=7
8cc
8dd
4ee-
8.ee-
16dd
8cc
8r
=8
8cc
8ff
16ff
16ee-
16ee-
16dd
4ee-
8dd
8cc
=9
8an
8b-
8cc
8cc
8ee-
8dd
8cc
8r
=10
8cc
16cc
16dd
8a
8b-
[2cc
=11
8cc]
8r
4r
2r
=12
8e
8f
4g
8b-
8a
4g
=13
8g
8a
8e
8f
2g
=14
8g
8a
4b-
8a
8b-
4cc
=15
8b-
8a
8en
8f
2g
=16
8.g
16dd
4dd
16dd
8.cc
8cc
8b-
=17
8cc
16cc
16ee-
8dd
8cc
4cc
8b-
16a
=18
8e
8f
8g
8g
8b-
8a
4g
=19
!First Ending
8g
8a
8e
8f
[2g
=20
8g]
8r
4r
2r
==:|!21
!Second Ending
8g
8a
8e
8f
[2g
=22
2g_
8g]
8r
4r
==|!
*-
